X: 21093
T: VICA HORNPIPE
R: hornpipe
B: K\"ohler's Violin Repository, v.2, 1885 p.109 #3
F: http://www.archive.org/details/klersviolinrepos02rugg
N: Bars 2, 6 and 14 are a "%" repeat symbol rather than written out.
Z: 2012 John Chambers <jc:trillian.mit.edu>
M: C|
L: 1/8
K: D
(uF>G) |\
(A>d)f>e (d>c)d>B | (A>d)f>e (d>c)d>B | (A>^G)A>B (A>B)c>d | (e>^d)e>f e2F>G |
(A>d)f>e (d>c)d>B | (A>d)f>e (d>c)d>B | (A>c)e>a (^g>a)=g>e | d2f2 d2 :|
|: (c>d) |\
(eA)(fA) (gA)(aA) | edcB ABcd | (eA) (fA) (gA) (aA) | edcB AGFE |
(A>d)f>e (d>c)d>B | (A>d)f>e (d>c)d>B | (A>c)e>a (^g>a)=g>e | d2f2 d2 :|

%%sep 2 1 500

